assets/sign.svg

<svg version="1.0" xmlns="http://www.w3.org/2000/svg" width="3900px" fill="none" height="880px" viewBox="0 0 3900 880">
 <style>
  #layer101 {
   fill: #24292f;
    stroke: #ffffff;
    stroke-width: 0;
  }
  #layer102 {
   fill: #ffffff;
    stroke: #24292f;
    stroke-width: 0;
  }
  @media ( prefers-color-scheme: dark) {
   #layer102 {
    fill: #161b22
   }
   #layer101 {
    fill: #dfe2e2
   }
   @media (min-width: 544px) { 
     #layer102 {
      fill: #0d1117!important
     }
   }
 }
 </style>
   <path id="layer101" d="M0 440 l0 -440 1950 0 1950 0 0 440 0 440 -1950 0 -1950 0 0 -440z"/>
 <g id="layer102">
   <path d="M0 440 l0 -440 1950 0 1950 0 0 440 0 440 -1950 0 -1950 0 0 -440z m141 401 c13 -10 47 -49 74 -86 l50 -66 50 6 c399 48 835 74 932 56 75 -14 93 -24 93 -54 0 -18 -4 -19 -57 -11 -144 22 -682 -2 -935 -42 -47 -7 -50 0 88 -174 211 -265 321 -371 379 -367 21 1 30 -3 33 -16 5 -23 -15 -47 -40 -47 -78 0 -204 126 -468 468 l-95 123 -67 -7 c-86 -8 -114 -1 -133 36 -26 50 -12 134 30 176 29 29 35 29 66 5z m1980 -155 c10 -27 23 -54 28 -59 5 -5 46 -15 92 -23 164 -29 368 -113 457 -189 44 -39 82 -106 82 -149 0 -137 -229 -220 -517 -187 -229 27 -404 108 -459 213 -35 67 8 82 50 18 100 -152 494 -232 756 -154 68 20 120 69 120 113 0 65 -130 169 -285 228 -84 32 -232 69 -241 60 -9 -8 129 -160 174 -190 45 -32 54 -47 41 -68 -7 -12 -14 -11 -44 6 -39 20 -175 159 -222 225 l-28 40 -71 0 c-83 0 -165 -10 -159 -19 2 -4 1 -12 -3 -18 -9 -14 -159 -21 -184 -9 -15 7 -18 3 -18 -18 0 -44 -30 -50 -106 -21 -37 14 -73 30 -80 36 -9 8 -11 5 -7 -10 7 -29 -21 -37 -60 -19 -23 11 -37 12 -48 5 -12 -8 -33 -2 -84 21 -37 18 -69 32 -72 32 -3 0 -2 -16 1 -35 7 -33 6 -35 -21 -35 -15 0 -59 14 -98 30 -38 17 -72 30 -76 30 -3 0 -4 -12 -1 -26 5 -25 3 -26 -24 -20 -16 4 -54 11 -84 15 -30 5 -75 14 -99 21 -24 6 -47 8 -50 3 -3 -4 -19 -15 -34 -22 -26 -14 -29 -13 -53 12 -30 32 -44 34 -44 7 0 -29 -25 -25 -39 7 -10 22 -9 29 3 41 13 13 22 14 53 4 24 -7 41 -8 47 -2 15 15 74 12 141 -6 33 -9 72 -18 87 -19 14 -2 31 -6 37 -10 6 -3 11 0 11 8 0 33 27 39 74 18 43 -19 45 -19 51 -1 9 28 114 25 177 -5 36 -17 48 -20 48 -10 0 25 20 27 49 6 36 -26 40 -26 34 -1 -8 31 23 36 73 11 54 -26 51 -25 57 -1 8 31 36 36 76 14 39 -21 91 -21 91 0 0 16 45 9 60 -9 13 -15 50 -8 66 13 13 18 85 31 177 31 37 1 67 2 67 4 0 1 -6 20 -14 41 -29 83 14 104 45 22z m1519 24 c14 -7 25 -7 38 1 24 15 71 5 142 -29 91 -45 74 -93 -20 -53 -47 20 -80 28 -67 15 3 -4 2 -15 -3 -25 -7 -12 -7 -20 0 -24 17 -11 11 -43 -9 -50 -11 -3 -32 -3 -48 1 -44 11 -173 66 -173 74 0 5 -14 13 -30 19 -28 9 -29 9 -20 -9 25 -46 2 -83 -38 -61 -16 9 -21 7 -25 -9 -3 -12 -14 -20 -25 -20 -21 0 -52 24 -52 40 0 4 -12 13 -27 18 -16 5 -36 13 -46 17 -15 6 -17 4 -11 -19 5 -23 3 -26 -20 -26 -28 0 -81 23 -103 46 -15 14 -76 34 -107 34 -14 0 -11 -6 15 -23 37 -25 47 -50 29 -72 -21 -25 -64 -17 -126 24 -46 31 -70 40 -109 41 -85 4 -105 1 -105 -15 0 -24 -26 -17 -50 13 -14 18 -23 23 -26 15 -7 -17 -63 -16 -133 1 -108 27 -119 27 -114 6 7 -27 -33 -44 -78 -33 -27 7 -35 15 -37 37 -8 68 59 82 222 46 50 -11 91 -20 93 -20 2 0 3 9 3 20 0 29 29 25 65 -9 30 -28 30 -28 101 -18 45 7 87 7 115 1 39 -8 45 -7 71 20 26 25 34 28 71 23 65 -9 145 -46 153 -71 7 -20 8 -19 17 8 8 25 12 27 41 21 17 -4 47 -10 66 -15 19 -4 40 -8 45 -10 6 -1 22 -2 38 -1 21 1 27 6 27 24 0 52 37 59 110 22 46 -23 50 -24 50 -7 0 38 48 55 90 32z m-369 -221 c6 -13 7 -25 2 -30 -12 -12 -40 -2 -47 18 -14 35 26 46 45 12z m-2191 -64 c7 -8 25 -15 41 -15 19 0 29 -5 29 -15 0 -11 -12 -15 -44 -15 -46 0 -72 19 -62 45 7 19 20 19 36 0z"/>
   <path d="M91 774 c-6 -14 -11 -40 -11 -59 0 -29 4 -36 25 -41 26 -6 95 3 95 12 0 10 -75 103 -86 108 -6 2 -17 -7 -23 -20z"/>
   <path d="M1600 546 c0 -2 7 -9 15 -16 9 -7 15 -8 15 -2 0 5 -7 12 -15 16 -8 3 -15 4 -15 2z"/>
   <path d="M1170 536 c0 -2 7 -7 16 -10 8 -3 12 -2 9 4 -6 10 -25 14 -25 6z"/>
   <path d="M3634 641 c4 -6 16 -16 28 -22 15 -8 18 -8 14 0 -4 6 -16 16 -28 22 -15 8 -18 8 -14 0z"/>
 </g>
</svg>

<svg width="100%" height="100%" viewBox="0 0 3900 880" version="1.1" xmlns="http://www.w3.org/2000/svg" xmlns:xlink="http://www.w3.org/1999/xlink" xml:space="preserve" xmlns:serif="http://www.serif.com/" style="fill-rule:evenodd;clip-rule:evenodd;stroke-linejoin:round;stroke-miterlimit:2;">
<style>
.col {fill:#24292f}
@media (prefers-color-scheme: dark) {
 .col {fill:#dfe2e2}
}</style>
<path class="col" id="L" d="M141,841C154,831 188,792 215,755L265,689L315,695C714,743 1150,769 1247,751C1322,737 1340,727 1340,697C1340,679 1336,678 1283,686C1139,708 601,684 348,644C301,637 298,644 436,470C647,205 757,99 815,103C836,104 845,100 848,87C853,64 833,40 808,40C730,40 604,166 340,508L245,631L178,624C92,616 64,623 45,660C19,710 33,794 75,836C104,865 110,865 141,841ZM91,774C85,760 80,734 80,715C80,686 84,679 105,674C131,668 200,677 200,686C200,696 125,789 114,794C108,796 97,787 91,774Z" style="fill-rule:nonzero;"/><path class="col" d="M2121,686C2131,659 2144,632 2149,627C2154,622 2195,612 2241,604C2405,575 2609,491 2698,415C2742,376 2780,309 2780,266C2780,129 2551,46 2263,79C2034,106 1859,187 1804,292C1769,359 1812,374 1854,310C1954,158 2348,78 2610,156C2678,176 2730,225 2730,269C2730,334 2600,438 2445,497C2361,529 2213,566 2204,557C2195,549 2333,397 2378,367C2423,335 2432,320 2419,299C2412,287 2405,288 2375,305C2336,325 2200,464 2153,530L2125,570L2054,570C1971,570 1889,560 1895,551C1897,547 1896,539 1892,533C1883,519 1733,512 1708,524C1693,531 1690,527 1690,506C1690,462 1660,456 1584,485C1547,499 1511,515 1504,521C1495,529 1493,526 1497,511C1504,482 1476,474 1437,492C1414,503 1400,504 1389,497C1377,489 1356,495 1305,518C1268,536 1236,550 1233,550C1230,550 1231,534 1234,515C1241,482 1240,480 1213,480C1198,480 1154,494 1115,510C1077,527 1043,540 1039,540C1036,540 1035,528 1038,514C1043,489 1041,488 1014,494C998,498 960,505 930,509C900,514 855,523 831,530C807,536 784,538 781,533C778,529 762,518 747,511C721,497 718,498 694,523C664,555 650,557 650,530C650,501 625,505 611,537C601,559 602,566 614,578C627,591 636,592 667,582C691,575 708,574 714,580C729,595 788,592 855,574C888,565 927,556 942,555C956,553 973,549 979,545C985,542 990,545 990,553C990,586 1017,592 1064,571C1107,552 1109,552 1115,570C1124,598 1229,595 1292,565C1328,548 1340,545 1340,555C1340,580 1360,582 1389,561C1425,535 1429,535 1423,560C1415,591 1446,596 1496,571C1550,545 1547,546 1553,570C1561,601 1589,606 1629,584C1668,563 1830,567 1846,588C1859,606 1931,619 2023,619C2060,620 2090,621 2090,623C2090,624 2084,643 2076,664C2047,747 2090,768 2121,686ZM1600,546C1600,544 1607,537 1615,530C1624,523 1630,522 1630,528C1630,533 1623,540 1615,544C1607,547 1600,548 1600,546ZM1170,536C1170,534 1177,529 1186,526C1194,523 1198,524 1195,530C1189,540 1170,544 1170,536ZM1080,425C1087,417 1105,410 1121,410C1140,410 1150,405 1150,395C1150,384 1138,380 1106,380C1060,380 1034,399 1044,425C1051,444 1064,444 1080,425Z" style="fill-rule:nonzero;"/>
<path class="col" d="M3640,710C3654,703 3665,703 3678,711C3702,726 3749,716 3820,682C3911,637 3894,589 3800,629C3753,649 3720,657 3733,644C3736,640 3735,629 3730,619C3723,607 3723,599 3730,595C3747,584 3741,552 3721,545C3710,542 3689,542 3673,546C3629,557 3500,612 3500,620C3500,625 3486,633 3470,639C3442,648 3441,648 3450,630C3475,584 3452,547 3412,569C3396,578 3391,576 3387,560C3384,548 3373,540 3362,540C3341,540 3310,564 3310,580C3310,584 3298,593 3283,598C3267,603 3247,611 3237,615C3222,621 3220,619 3226,596C3231,573 3229,570 3206,570C3178,570 3125,593 3103,616C3088,630 3027,650 2996,650C2982,650 2985,644 3011,627C3048,602 3058,577 3040,555C3019,530 2976,538 2914,579C2868,610 2844,619 2805,620C2720,624 2700,621 2700,605C2700,581 2674,588 2650,618C2636,636 2627,641 2624,633C2617,616 2561,617 2491,634C2383,661 2372,661 2377,640C2384,613 2344,596 2299,607C2272,614 2264,622 2262,644C2254,712 2321,726 2484,690C2534,679 2575,670 2577,670C2579,670 2580,679 2580,690C2580,719 2609,715 2645,681C2675,653 2675,653 2746,663C2791,670 2833,670 2861,664C2900,656 2906,657 2932,684C2958,709 2966,712 3003,707C3068,698 3148,661 3156,636C3163,616 3164,617 3173,644C3181,669 3185,671 3214,665C3231,661 3261,655 3280,650C3299,646 3320,642 3325,640C3331,639 3347,638 3363,639C3384,640 3390,645 3390,663C3390,715 3427,722 3500,685C3546,662 3550,661 3550,678C3550,716 3598,733 3640,710ZM2307.11,652.974C2307.11,650.974 2314.11,643.974 2322.11,636.974C2331.11,629.974 2337.11,628.974 2337.11,634.974C2337.11,639.974 2330.11,646.974 2322.11,650.974C2314.11,653.974 2307.11,654.974 2307.11,652.974ZM3634,641C3638,635 3650,625 3662,619C3677,611 3680,611 3676,619C3672,625 3660,635 3648,641C3633,649 3630,649 3634,641ZM2966,610C2970,604 2982,594 2994,588C3009,580 3012,580 3008,588C3004,594 2992,604 2980,610C2965,618 2962,618 2966,610ZM3271,489C3277,476 3278,464 3273,459C3261,447 3233,457 3226,477C3212,512 3252,523 3271,489Z" style="fill-rule:nonzero;"/>
</svg>
